ion/albums.svg

<svg viewBox="0 0 512 512" xmlns="http://www.w3.org/2000/svg"><g><path d="M368 96H144v0c-8.84 0-16-7.17-16-16 0-8.84 7.16-16 16-16h224v0c8.83 0 16 7.16 16 16 0 8.83-7.17 16-16 16Z"/><path d="M400 144H112v0c-8.84 0-16-7.17-16-16 0-8.84 7.16-16 16-16h288v0c8.83 0 16 7.16 16 16 0 8.83-7.17 16-16 16Z"/><path d="M419.13 448H92.87v0c-24.77-.03-44.85-20.11-44.87-44.87V204.87v-.001c.02-24.77 20.1-44.85 44.87-44.87h326.26 -.001c24.76.02 44.84 20.1 44.87 44.87v198.26 0c-.03 24.76-20.11 44.84-44.87 44.87Z"/></g></svg>

<svg xmlns="http://www.w3.org/2000/svg" width="512" height="512" viewBox="0 0 512 512"><path d="M368,96H144a16,16,0,0,1,0-32H368a16,16,0,0,1,0,32Z"/><path d="M400,144H112a16,16,0,0,1,0-32H400a16,16,0,0,1,0,32Z"/><path d="M419.13,448H92.87A44.92,44.92,0,0,1,48,403.13V204.87A44.92,44.92,0,0,1,92.87,160H419.13A44.92,44.92,0,0,1,464,204.87V403.13A44.92,44.92,0,0,1,419.13,448Z"/></svg>
